assets/Man frowning/Default/Flat/man_frowning_flat_default.svg

<svg width="32" height="32" viewBox="0 0 32 32" fill="none" xmlns="http://www.w3.org/2000/svg">
<path d="M22.6225 5.19822L22.0904 4.91661C21.713 4.708 21.3647 4.44725 21.0648 4.12391L20.0199 3.00788C19.2 1.96 18.0753 1.78 17.04 2.27777C16.3628 2.5281 15.6275 2.5281 14.9503 2.27777C14.0311 1.77712 12.9282 1.96487 12.2026 2.74713L10.9255 4.11348C10.6256 4.43682 10.2773 4.708 9.89994 4.91661L9.36782 5.19822C8.38097 5.73016 7.83918 6.89834 8.04235 8.06652L8.7583 12.2595C8.82602 12.6767 8.55164 14 8.55164 14H23.4677C23.4677 14 23.174 12.6767 23.2514 12.2595L23.9673 8.06652C24.1415 6.89834 23.6093 5.73016 22.6225 5.19822Z" fill="#F1A11E"/>
<path d="M26 30V29.6161C26 24.311 21.5255 20 16 20C10.4745 20.0098 6 24.311 6 29.6161V30H26Z" fill="#00A6ED"/>
<path d="M16 24.5C14.6174 24.5 13.5 23.306 13.5 21.8286V18.6714C13.5 17.194 14.6174 16 16 16C17.3826 16 18.5 17.194 18.5 18.6714V21.8286C18.5 23.306 17.3826 24.5 16 24.5Z" fill="#FCB100"/>
<path fill-rule="evenodd" clip-rule="evenodd" d="M22.5741 11.214C22.5269 11.9703 22.4677 13 22.4677 13C22.8547 12.9791 23.174 12.6767 23.2514 12.2595L23.3774 11.5215C23.9683 11.9 24.36 12.5625 24.36 13.3163C24.36 14.4927 23.4063 15.4463 22.23 15.4463C21.0536 15.4463 20.1 14.4927 20.1 13.3163C20.1 12.14 21.0536 11.1863 22.23 11.1863C22.3471 11.1863 22.4621 11.1958 22.5741 11.214ZM8.62751 11.4935L8.7583 12.2595C8.82602 12.6767 9.16465 12.9791 9.55164 13C9.55164 13 9.48468 11.9713 9.43639 11.2064C9.53236 11.1932 9.63037 11.1863 9.72998 11.1863C10.9063 11.1863 11.86 12.14 11.86 13.3163C11.86 14.4927 10.9063 15.4463 9.72998 15.4463C8.55361 15.4463 7.59998 14.4927 7.59998 13.3163C7.59998 12.5435 8.01157 11.8668 8.62751 11.4935Z" fill="#FDBB11"/>
<path fill-rule="evenodd" clip-rule="evenodd" d="M9.45426 12.9887C9.48629 12.9944 9.51881 12.9982 9.55168 13C9.55168 13 9.47428 11.811 9.42591 11.0391C9.40656 10.6428 9.55168 10.2569 9.82258 9.9961L10.0548 9.77707C10.3741 9.46416 10.5579 9.0261 10.5579 8.56717V7.38856C10.5579 7.05479 10.7707 6.76275 11.0706 6.6793C11.8737 6.46027 13.6055 6.09521 15.9952 6.09521C18.3849 6.09521 20.1167 6.4707 20.9197 6.6793C21.2197 6.76275 21.4325 7.05479 21.4325 7.38856V8.56717C21.4325 9.0261 21.6163 9.46416 21.9356 9.77707L22.1872 10.017C22.4581 10.2777 22.6032 10.6636 22.5838 11.06C22.5355 11.8214 22.4677 13 22.4677 13C22.494 12.9986 22.52 12.9959 22.5456 12.9919L22.231 17.5593C22.0037 19.8572 20.2347 21.5 18.0704 21.5H13.9296C11.7654 21.5 9.98652 19.8572 9.7691 17.5593L9.45426 12.9887Z" fill="#FFC83D"/>
<path d="M17.3883 18.2236C16.4586 17.7588 15.5415 17.7588 14.6119 18.2236C14.4884 18.2853 14.3382 18.2353 14.2764 18.1118C14.2147 17.9883 14.2648 17.8381 14.3883 17.7764C15.4586 17.2412 16.5415 17.2412 17.6119 17.7764C17.7353 17.8381 17.7854 17.9883 17.7237 18.1118C17.6619 18.2353 17.5118 18.2853 17.3883 18.2236Z" fill="#990839"/>
<path d="M15.49 12.8675L14.8 15.0875C14.66 15.5375 15 15.9975 15.47 15.9975H16.48C16.96 15.9975 17.29 15.5375 17.15 15.0875L16.46 12.8675C16.33 12.3775 15.64 12.3775 15.49 12.8675Z" fill="#ED9200"/>
<path d="M14.9383 12.5051C15.0065 12.7727 14.7762 13 14.5 13H11.5C11.2239 13 10.9936 12.7727 11.0618 12.5051C11.282 11.6399 12.0663 11 13 11C13.9338 11 14.7181 11.6399 14.9383 12.5051Z" fill="white"/>
<path d="M20.9383 12.5051C21.0065 12.7727 20.7762 13 20.5 13H17.5C17.2239 13 16.9936 12.7727 17.0618 12.5051C17.282 11.6399 18.0663 11 19 11C19.9338 11 20.7181 11.6399 20.9383 12.5051Z" fill="white"/>
<path d="M14.5 12.75C14.5 12.8356 14.4914 12.9192 14.475 13H12.025C12.0086 12.9192 12 12.8356 12 12.75C12 12.0596 12.5596 11.5 13.25 11.5C13.9404 11.5 14.5 12.0596 14.5 12.75Z" fill="#7D4533"/>
<path d="M20 12.75C20 12.8356 19.9914 12.9192 19.975 13H17.525C17.5086 12.9192 17.5 12.8356 17.5 12.75C17.5 12.0596 18.0596 11.5 18.75 11.5C19.4404 11.5 20 12.0596 20 12.75Z" fill="#7D4533"/>
<path d="M14 12.75C14 12.8377 13.985 12.9218 13.9573 13H12.5427C12.515 12.9218 12.5 12.8377 12.5 12.75C12.5 12.3358 12.8358 12 13.25 12C13.6642 12 14 12.3358 14 12.75Z" fill="black"/>
<path d="M19.5 12.75C19.5 12.8377 19.485 12.9218 19.4573 13H18.0427C18.015 12.9218 18 12.8377 18 12.75C18 12.3358 18.3358 12 18.75 12C19.1642 12 19.5 12.3358 19.5 12.75Z" fill="black"/>
<path d="M12.75 12.5C12.8881 12.5 13 12.3881 13 12.25C13 12.1119 12.8881 12 12.75 12C12.6119 12 12.5 12.1119 12.5 12.25C12.5 12.3881 12.6119 12.5 12.75 12.5Z" fill="white"/>
<path d="M18.25 12.5C18.3881 12.5 18.5 12.3881 18.5 12.25C18.5 12.1119 18.3881 12 18.25 12C18.1119 12 18 12.1119 18 12.25C18 12.3881 18.1119 12.5 18.25 12.5Z" fill="white"/>
<path d="M14.166 10.1241C14.5107 9.89429 14.6038 9.42864 14.374 9.08399C14.1443 8.73935 13.6786 8.64622 13.334 8.87598C12.6815 9.31097 12.0787 9.50002 11.5 9.50002C11.0858 9.50002 10.75 9.83581 10.75 10.25C10.75 10.6642 11.0858 11 11.5 11C12.4311 11 13.3185 10.6891 14.166 10.1241Z" fill="#D37034"/>
<path d="M17.834 10.1241C17.4893 9.89429 17.3962 9.42864 17.626 9.08399C17.8557 8.73935 18.3214 8.64622 18.666 8.87598C19.3185 9.31097 19.9213 9.50002 20.5 9.50002C20.9142 9.50002 21.25 9.83581 21.25 10.25C21.25 10.6642 20.9142 11 20.5 11C19.5689 11 18.6815 10.6891 17.834 10.1241Z" fill="#D37034"/>
</svg>

<svg xmlns="http://www.w3.org/2000/svg" width="32" height="32" fill="none"><path fill="#F1A11E" d="m22.622 5.198-.532-.281a4.08 4.08 0 0 1-1.025-.793L20.02 3.008c-.82-1.048-1.945-1.228-2.98-.73-.677.25-1.412.25-2.09 0-.919-.5-2.022-.313-2.747.47l-1.277 1.365c-.3.324-.649.595-1.026.804l-.532.281c-.987.532-1.529 1.7-1.326 2.869l.716 4.192c.068.418-.206 1.741-.206 1.741h14.916s-.294-1.323-.217-1.74l.716-4.193c.175-1.169-.358-2.337-1.345-2.869Z"/><path fill="#00A6ED" d="M26 30v-.384C26 24.311 21.526 20 16 20c-5.525.01-10 4.311-10 9.616V30h20Z"/><path fill="#FCB100" d="M16 24.5c-1.383 0-2.5-1.194-2.5-2.671V18.67C13.5 17.194 14.617 16 16 16s2.5 1.194 2.5 2.671v3.158c0 1.477-1.117 2.671-2.5 2.671Z"/><path fill="#FDBB11" fill-rule="evenodd" d="M22.574 11.214c-.047.756-.106 1.786-.106 1.786.387-.02.706-.323.783-.74l.126-.739a2.13 2.13 0 1 1-.803-.307Zm-13.946.28.13.765c.068.418.407.72.794.741l-.116-1.794a2.13 2.13 0 1 1-.809.287Z" clip-rule="evenodd"/><path fill="#FFC83D" fill-rule="evenodd" d="M9.454 12.989c.032.005.065.01.098.011 0 0-.078-1.189-.126-1.96-.02-.397.126-.783.397-1.044l.232-.219c.32-.313.503-.75.503-1.21V7.39c0-.334.213-.626.513-.71.803-.219 2.534-.584 4.924-.584 2.39 0 4.122.376 4.925.584.3.084.512.376.512.71v1.178c0 .46.184.897.504 1.21l.251.24c.271.26.416.647.397 1.043-.049.761-.116 1.94-.116 1.94a.77.77 0 0 0 .078-.008l-.315 4.567c-.227 2.298-1.996 3.941-4.16 3.941H13.93c-2.165 0-3.943-1.643-4.16-3.94l-.316-4.571Z" clip-rule="evenodd"/><path fill="#990839" d="M17.388 18.224c-.93-.465-1.847-.465-2.776 0a.25.25 0 0 1-.224-.448c1.07-.535 2.153-.535 3.224 0a.25.25 0 0 1-.224.448Z"/><path fill="#ED9200" d="m15.49 12.867-.69 2.22c-.14.45.2.91.67.91h1.01a.7.7 0 0 0 .67-.91l-.69-2.22c-.13-.49-.82-.49-.97 0Z"/><path fill="#fff" d="M14.938 12.505c.069.268-.162.495-.438.495h-3c-.276 0-.506-.227-.438-.495a2 2 0 0 1 3.876 0ZM20.938 12.505c.069.268-.162.495-.438.495h-3c-.276 0-.506-.227-.438-.495a2 2 0 0 1 3.876 0Z"/><path fill="#7D4533" d="M14.5 12.75c0 .086-.009.17-.025.25h-2.45a1.25 1.25 0 1 1 2.475-.25ZM20 12.75c0 .086-.009.17-.025.25h-2.45A1.25 1.25 0 1 1 20 12.75Z"/><path fill="#000" d="M14 12.75a.747.747 0 0 1-.043.25h-1.414A.75.75 0 1 1 14 12.75ZM19.5 12.75a.747.747 0 0 1-.043.25h-1.414a.75.75 0 1 1 1.457-.25Z"/><path fill="#fff" d="M12.75 12.5a.25.25 0 1 0 0-.5.25.25 0 0 0 0 .5ZM18.25 12.5a.25.25 0 1 0 0-.5.25.25 0 0 0 0 .5Z"/><path fill="#D37034" d="M14.166 10.124a.75.75 0 1 0-.832-1.248c-.652.435-1.255.624-1.834.624a.75.75 0 0 0 0 1.5c.931 0 1.819-.31 2.666-.876ZM17.834 10.124a.75.75 0 1 1 .832-1.248c.652.435 1.255.624 1.834.624a.75.75 0 0 1 0 1.5c-.931 0-1.819-.31-2.666-.876Z"/></svg>
